dist/img/suitcase.svg

<svg width="40" height="40" viewBox="0 0 40 40" fill="currentColor" xmlns="http://www.w3.org/2000/svg">
<path d="M35.7031 9.45312H27.4219V6.71875C27.4219 4.78023 25.8448 3.20312 23.9062 3.20312H16.0938C14.1552 3.20312 12.5781 4.78023 12.5781 6.71875V9.45312H4.29688C1.92758 9.45312 0 11.3807 0 13.75V32.5C0 34.8693 1.92758 36.7969 4.29688 36.7969H35.7031C38.0724 36.7969 40 34.8693 40 32.5V13.75C40 11.3807 38.0724 9.45312 35.7031 9.45312ZM14.9219 6.71875C14.9219 6.07258 15.4476 5.54688 16.0938 5.54688H23.9062C24.5524 5.54688 25.0781 6.07258 25.0781 6.71875V9.45312H14.9219V6.71875ZM6.25 34.4531H4.29688C3.21992 34.4531 2.34375 33.577 2.34375 32.5V13.75C2.34375 12.673 3.21992 11.7969 4.29688 11.7969H6.25V34.4531ZM31.4062 34.4531H8.59375V11.7969H11.5455C11.3011 12.3923 11.1784 13.0118 11.182 13.6525C11.1902 15.1012 11.8616 16.2878 12.3637 16.9744L11.1098 19.9098C10.965 20.249 10.9882 20.6366 11.1727 20.9561L15.4695 28.3985C15.6866 28.7745 16.0805 28.9847 16.4855 28.9847C16.6842 28.9847 16.8858 28.9341 17.0703 28.8274L22.483 25.7024C22.7521 25.547 22.9485 25.291 23.029 24.9909C23.1094 24.6907 23.0673 24.3708 22.9119 24.1016L18.615 16.6592C18.4306 16.3398 18.1065 16.1259 17.7403 16.0816L14.3128 15.6687C14.0149 15.2802 13.5306 14.5148 13.5257 13.6394C13.5221 13.003 13.7654 12.397 14.2651 11.797H31.4062V34.4531ZM13.4953 20.2916L14.4544 18.0465L16.8783 18.3384L20.2962 24.2585L16.9133 26.2116L13.4953 20.2916ZM37.6562 32.5C37.6562 33.577 36.7801 34.4531 35.7031 34.4531H33.75V11.7969H35.7031C36.7801 11.7969 37.6562 12.673 37.6562 13.75V32.5Z" fill="#303030"/>
<path d="M25.4688 21.1719C27.4073 21.1719 28.9844 19.5948 28.9844 17.6562C28.9844 15.7177 27.4073 14.1406 25.4688 14.1406C23.5302 14.1406 21.9531 15.7177 21.9531 17.6562C21.9531 19.5948 23.5302 21.1719 25.4688 21.1719ZM25.4688 16.4844C26.1149 16.4844 26.6406 17.0101 26.6406 17.6562C26.6406 18.3024 26.1149 18.8281 25.4688 18.8281C24.8226 18.8281 24.2969 18.3024 24.2969 17.6562C24.2969 17.0101 24.8226 16.4844 25.4688 16.4844Z" fill="#303030"/>
</svg>

<svg width="40" height="40" fill="currentColor" xmlns="http://www.w3.org/2000/svg"><path d="M35.703 9.453h-8.281V6.72a3.52 3.52 0 0 0-3.516-3.516h-7.812a3.52 3.52 0 0 0-3.516 3.516v2.734H4.297A4.302 4.302 0 0 0 0 13.75V32.5a4.302 4.302 0 0 0 4.297 4.297h31.406A4.302 4.302 0 0 0 40 32.5V13.75a4.302 4.302 0 0 0-4.297-4.297ZM14.922 6.72c0-.646.526-1.172 1.172-1.172h7.812c.646 0 1.172.526 1.172 1.172v2.734H14.922V6.72ZM6.25 34.453H4.297A1.955 1.955 0 0 1 2.344 32.5V13.75c0-1.077.876-1.953 1.953-1.953H6.25v22.656Zm25.156 0H8.594V11.797h2.952a4.775 4.775 0 0 0-.364 1.855c.008 1.45.68 2.636 1.182 3.322L11.11 19.91c-.145.339-.122.727.063 1.046l4.296 7.442a1.171 1.171 0 0 0 1.601.43l5.413-3.126a1.172 1.172 0 0 0 .429-1.6l-4.297-7.443a1.173 1.173 0 0 0-.875-.577l-3.427-.413c-.298-.389-.782-1.154-.787-2.03-.004-.636.24-1.242.74-1.842h17.14v22.656Zm-17.91-14.161.958-2.245 2.424.291 3.418 5.92-3.383 1.954-3.418-5.92ZM37.655 32.5a1.955 1.955 0 0 1-1.953 1.953H33.75V11.797h1.953c1.077 0 1.953.876 1.953 1.953V32.5Z" fill="#303030"/><path d="M25.469 21.172a3.52 3.52 0 0 0 3.515-3.516 3.52 3.52 0 0 0-3.515-3.515 3.52 3.52 0 0 0-3.516 3.515 3.52 3.52 0 0 0 3.516 3.516Zm0-4.688a1.173 1.173 0 0 1 0 2.344 1.173 1.173 0 0 1-1.172-1.172c0-.646.526-1.172 1.172-1.172Z" fill="#303030"/></svg>
